brandFactory_export/1.Light/Descargar_Descarga app_1Light.svg

<?xml version="1.0" encoding="UTF-8"?>
<svg width="24px" height="24px" viewBox="0 0 24 24" version="1.1" xmlns="http://www.w3.org/2000/svg" xmlns:xlink="http://www.w3.org/1999/xlink">
    <title>1.Light/Descargar_Descarga app_1Light</title>
    <g id="Symbols" stroke="none" stroke-width="1" fill="none" fill-rule="evenodd">
        <g id="1.Light/Descargar_Descarga-app_1Light" fill="#5CB615" fill-rule="nonzero">
            <path d="M16.1647059,-8.8817842e-15 C17.4016807,-8.8817842e-15 18.292437,0.292436975 18.8907563,0.894117647 C19.4890756,1.49579832 19.7781513,2.38319328 19.7781513,3.61344538 L19.7781513,20 C19.7781513,21.2436975 19.4857143,22.1378151 18.8840336,22.7361345 C18.2890756,23.3277311 17.3983193,23.6134454 16.1647059,23.6134454 L7.64369748,23.6134454 C6.41008403,23.6134454 5.51932773,23.3277311 4.92436975,22.7361345 C4.32268908,22.1411765 4.0302521,21.2436975 4.0302521,20 L4.0302521,3.61344538 C4.0302521,2.40336134 4.32268908,1.51932773 4.9210084,0.914285714 C5.52941177,0.299159664 6.42016807,-8.8817842e-15 7.64369748,-8.8817842e-15 L16.1647059,-8.8817842e-15 Z M16.1647059,0.672268908 L7.64369748,0.672268908 C6.60840336,0.672268908 5.87563025,0.904201681 5.39831933,1.38487395 C4.92773109,1.85882353 4.69915966,2.58823529 4.69915966,3.61344538 L4.69915966,20 C4.69915966,22.0907563 5.55294118,22.9411765 7.64033613,22.9411765 L16.1613445,22.9411765 C18.2521008,22.9411765 19.102521,22.0907563 19.102521,20 L19.102521,3.61344538 C19.102521,2.56806723 18.8773109,1.83193277 18.4134454,1.36806723 C17.9495798,0.904201681 17.2134454,0.672268908 16.1647059,0.672268908 Z M11.912605,18.8033613 C12.5176471,18.8033613 12.907563,19.1226891 12.907563,19.805042 C12.907563,20.1344538 12.8201681,20.3764706 12.6588235,20.5411765 C12.4840336,20.7193277 12.2285714,20.8067227 11.912605,20.8067227 C11.5966387,20.8067227 11.3411765,20.7193277 11.1663866,20.5411765 C11.005042,20.3764706 10.9142857,20.1344538 10.9142857,19.805042 C10.9142857,19.1226891 11.307563,18.8033613 11.912605,18.8033613 Z M10.7831933,3.97310924 L13.0957983,3.97310924 C13.3277311,3.97310924 13.5495798,4.07058824 13.7008403,4.24537815 C13.8487395,4.41344538 13.9193277,4.63529412 13.892437,4.8605042 L13.892437,11.1764706 L16.0470588,11.1764706 C16.2319328,11.1764706 16.3831933,11.3277311 16.3831933,11.512605 C16.3831933,11.5932773 16.3529412,11.6739496 16.2991597,11.7344538 L12.1579832,16.4470588 C12.0941176,16.5176471 12.0033613,16.5579832 11.9058824,16.5579832 C11.8084034,16.5579832 11.7176471,16.5176471 11.6537815,16.4436975 L7.52605042,11.7344538 C7.40504202,11.5932773 7.4184874,11.3815126 7.55630252,11.2605042 C7.61680672,11.2067227 7.69747899,11.1764706 7.77815126,11.1764706 L9.86890756,11.1764706 L9.86890756,4.8 C9.85882353,4.57478992 9.94957983,4.35630252 10.1176471,4.20168067 C10.2957983,4.0302521 10.5378151,3.94621849 10.7831933,3.97310924 Z M10.7193277,4.64201681 C10.6689076,4.63529412 10.6151261,4.65210084 10.5781513,4.68907563 C10.5546218,4.70588235 10.5411765,4.73277311 10.5378151,4.76302521 L10.5378151,11.512605 C10.5378151,11.697479 10.3865546,11.8487395 10.2016807,11.8487395 L8.51764706,11.8487395 L11.9058824,15.7142857 L15.3042017,11.8487395 L13.5563025,11.8487395 C13.3714286,11.8487395 13.2201681,11.697479 13.2201681,11.512605 L13.2201681,4.83697479 C13.2201681,4.82016807 13.2201681,4.80336134 13.2235294,4.78655462 C13.2302521,4.75294118 13.2201681,4.71596639 13.1966387,4.68907563 C13.1731092,4.66218487 13.1428571,4.64537815 13.1092437,4.64537815 L10.7630252,4.64537815 C10.7495798,4.64537815 10.7361345,4.64537815 10.7193277,4.64201681 Z" id="Descargar_Descarga-app_1Light"></path>
        </g>
    </g>
</svg>

<svg width="24" height="24" viewBox="0 0 24 24" xmlns="http://www.w3.org/2000/svg"><path d="M16.165 0c1.237 0 2.127.292 2.726.894.598.602.887 1.49.887 2.72V20c0 1.244-.292 2.138-.894 2.736-.595.592-1.486.877-2.72.877h-8.52c-1.234 0-2.125-.285-2.72-.877-.601-.595-.894-1.492-.894-2.736V3.613c0-1.21.293-2.094.891-2.699C5.529.3 6.421 0 7.644 0h8.52zm0 .672H7.644c-1.036 0-1.768.232-2.246.713-.47.474-.699 1.203-.699 2.228V20c0 2.09.854 2.941 2.941 2.941h8.521c2.091 0 2.942-.85 2.942-2.941V3.613c0-1.045-.226-1.781-.69-2.245-.463-.464-1.2-.696-2.248-.696zm-4.252 18.131c.605 0 .995.32.995 1.002 0 .33-.088.571-.25.736-.174.178-.43.266-.745.266-.316 0-.572-.088-.747-.266-.161-.165-.252-.407-.252-.736 0-.682.394-1.002.999-1.002zm-1.13-14.83h2.313a.798.798 0 01.796.888v6.315h2.155a.337.337 0 01.252.558l-4.141 4.713a.338.338 0 01-.504-.003l-4.128-4.71a.338.338 0 01.03-.473.337.337 0 01.222-.085h2.09V4.8a.766.766 0 01.25-.598.828.828 0 01.665-.229zm-.064.669a.17.17 0 00-.14.047.102.102 0 00-.041.074v6.75a.337.337 0 01-.336.336H8.518l3.388 3.865 3.398-3.865h-1.748a.337.337 0 01-.336-.336V4.837c0-.017 0-.034.004-.05a.116.116 0 00-.027-.098.117.117 0 00-.088-.044h-2.346c-.013 0-.027 0-.044-.003z" fill="#5CB615" fill-rule="nonzero"/></svg>
